layouts/icon-pack/weapon_hammer.svg

<?xml version="1.0" encoding="UTF-8"?>
<svg width="1200pt" height="1200pt" version="1.1" viewBox="0 0 1200 1200" xmlns="http://www.w3.org/2000/svg">
 <g fill="#fff">
  <path d="m319.92 838.31c-3.3477-3.3438-7.8867-5.2227-12.621-5.2227s-9.2734 1.8789-12.621 5.2227l-217.08 217.08c-3.7461 3.75-5.8516 8.832-5.8516 14.133 0 5.3008 2.1055 10.383 5.8516 14.133l38.766 38.766c3.75 3.7461 8.832 5.8516 14.133 5.8516s10.383-2.1055 14.133-5.8516l217.08-217.08c3.3438-3.3477 5.2227-7.8867 5.2227-12.621s-1.8789-9.2734-5.2227-12.621l-3.8203-3.8203 375.38-375.42c4.9219-4.9219 5.0352-12.867 0.25781-17.93-2.6562-2.7812-5.3594-5.5625-8.1094-8.3438-2.7656-2.7422-5.5547-5.4609-8.3438-8.1094-5.0625-4.7773-13.008-4.6641-17.93 0.25781l-375.4 375.4z"/>
  <path d="m793.62 128.18c-23.93-19.055-44.789-37.828-58.289-50.438-4.3242-4.0391-10.082-6.1875-15.992-5.9688-5.9141 0.22266-11.496 2.793-15.508 7.1406l-169.62 183.59c-3.9023 4.2266-6.0156 9.7969-5.9023 15.543 0.11328 5.75 2.4453 11.234 6.5117 15.301l58.594 58.594c2.5352 2.5391 6.0039 3.9219 9.5898 3.8242 3.5898-0.097657 6.9766-1.668 9.3711-4.3398l182.81-204.07c2.4688-2.6914 3.7031-6.2891 3.4062-9.9297s-2.1016-6.9883-4.9766-9.2422z"/>
  <path d="m848.25 606.63 58.594 58.594c4.0664 4.0664 9.5508 6.3984 15.301 6.5117 5.7461 0.11328 11.316-2 15.543-5.9023l183.47-169.62c4.3477-4.0117 6.918-9.5938 7.1406-15.508 0.21875-5.9102-1.9297-11.668-5.9688-15.992-12.609-13.5-31.383-34.359-50.438-58.289-2.2422-2.8203-5.5508-4.5938-9.1445-4.9023-3.5898-0.30469-7.1523 0.88281-9.8398 3.2852l-204.07 182.81c-2.6953 2.3867-4.2891 5.7773-4.4023 9.3789-0.10938 3.5977 1.2695 7.082 3.8164 9.6289z"/>
  <path d="m663.47 370.85c45.328 32.672 89.859 75.82 89.859 75.82s43.148 44.531 75.82 89.859c1.1602 1.6562 2.9805 2.7305 4.9883 2.9492 2.0117 0.21875 4.0195-0.4375 5.5117-1.8008l159.75-144.35c1.6133-1.4453 2.4727-3.5547 2.3242-5.7148-0.14453-2.1602-1.2812-4.1328-3.0742-5.3477-29.438-20.156-67.664-48.797-99.891-81.023-32.227-32.227-60.938-70.453-81.023-99.891-1.2148-1.793-3.1875-2.9297-5.3477-3.0742-2.1602-0.14844-4.2695 0.71094-5.7148 2.3242l-144.35 159.75c-1.3633 1.4922-2.0195 3.5-1.8008 5.5117 0.21875 2.0078 1.293 3.8281 2.9492 4.9883z"/>
  <path d="m918.21 281.79s13.688 14.602 25.781 21.094c2.5781 1.4297 5.7891 0.98047 7.875-1.1016l10.734-10.711c2.4688-2.457 3.8555-5.7969 3.8555-9.2812 0-3.4844-1.3867-6.8242-3.8555-9.2812l-17.531-17.555-17.555-17.531c-2.457-2.4688-5.7969-3.8555-9.2812-3.8555s-6.8242 1.3867-9.2812 3.8555l-10.711 10.734c-2.082 2.0859-2.5312 5.2969-1.1016 7.875 6.4688 12.07 21.07 25.758 21.07 25.758z"/>
 </g>
</svg>

<?xml version="1.0" encoding="UTF-8" standalone="no"?>
<!DOCTYPE svg PUBLIC "-//W3C//DTD SVG 1.1//EN" "http://www.w3.org/Graphics/SVG/1.1/DTD/svg11.dtd">
<svg width="100%" height="100%" viewBox="0 0 512 512" version="1.1" xmlns="http://www.w3.org/2000/svg" xmlns:xlink="http://www.w3.org/1999/xlink" xml:space="preserve" xmlns:serif="http://www.serif.com/" style="fill-rule:evenodd;clip-rule:evenodd;stroke-linejoin:round;stroke-miterlimit:2;">
    <g transform="matrix(1,0,0,1,-71.7464,-71.758)">
        <g transform="matrix(0.484588,0,0,0.484588,36.9789,36.9849)">
            <path d="M319.92,838.31C316.572,834.966 312.033,833.087 307.299,833.087C302.565,833.087 298.026,834.966 294.678,838.31L77.598,1055.39C73.852,1059.14 71.746,1064.22 71.746,1069.52C71.746,1074.82 73.852,1079.91 77.598,1083.66L116.364,1122.42C120.114,1126.17 125.196,1128.27 130.497,1128.27C135.798,1128.27 140.88,1126.17 144.63,1122.42L361.71,905.342C365.054,901.994 366.933,897.455 366.933,892.721C366.933,887.987 365.054,883.448 361.71,880.1L357.89,876.28L733.27,500.86C738.192,495.938 738.305,487.993 733.528,482.93C730.871,480.149 728.168,477.367 725.418,474.586C722.653,471.844 719.863,469.125 717.074,466.477C712.012,461.699 704.066,461.812 699.144,466.734L323.744,842.134L319.92,838.31Z" style="fill:white;fill-rule:nonzero;"/>
            <path d="M793.62,128.18C769.69,109.125 748.831,90.352 735.331,77.742C731.007,73.703 725.249,71.555 719.339,71.773C713.425,71.996 707.843,74.566 703.831,78.914L534.211,262.504C530.309,266.73 528.195,272.301 528.309,278.047C528.422,283.797 530.754,289.281 534.82,293.348L593.414,351.942C595.95,354.481 599.418,355.864 603.004,355.766C606.594,355.668 609.981,354.098 612.375,351.426L795.185,147.356C797.654,144.665 798.888,141.067 798.592,137.427C798.295,133.786 796.49,130.438 793.615,128.184L793.62,128.18Z" style="fill:white;fill-rule:nonzero;"/>
            <path d="M848.25,606.63L906.844,665.224C910.91,669.29 916.395,671.622 922.145,671.736C927.891,671.849 933.461,669.736 937.688,665.833L1121.16,496.213C1125.51,492.202 1128.08,486.62 1128.3,480.705C1128.52,474.795 1126.37,469.037 1122.33,464.713C1109.72,451.213 1090.95,430.354 1071.89,406.424C1069.65,403.604 1066.34,401.831 1062.75,401.522C1059.16,401.217 1055.6,402.405 1052.91,404.807L848.837,587.617C846.142,590.004 844.548,593.395 844.435,596.996C844.326,600.594 845.705,604.078 848.252,606.625L848.25,606.63Z" style="fill:white;fill-rule:nonzero;"/>
            <path d="M663.47,370.85C708.798,403.522 753.329,446.67 753.329,446.67C753.329,446.67 796.477,491.201 829.149,536.529C830.309,538.185 832.13,539.26 834.137,539.478C836.149,539.697 838.157,539.041 839.649,537.677L999.399,393.327C1001.01,391.882 1001.87,389.773 1001.72,387.613C1001.58,385.452 1000.44,383.48 998.649,382.265C969.211,362.109 930.985,333.468 898.758,301.242C866.531,269.015 837.82,230.789 817.735,201.351C816.52,199.558 814.548,198.421 812.387,198.277C810.227,198.128 808.118,198.988 806.673,200.601L662.323,360.351C660.959,361.843 660.303,363.851 660.522,365.863C660.74,367.87 661.815,369.691 663.471,370.851L663.47,370.85Z" style="fill:white;fill-rule:nonzero;"/>
            <path d="M918.21,281.79C918.21,281.79 931.898,296.392 943.991,302.884C946.569,304.314 949.78,303.864 951.866,301.782L962.6,291.071C965.069,288.614 966.456,285.275 966.456,281.79C966.456,278.306 965.069,274.966 962.6,272.509L945.069,254.954L927.514,237.423C925.057,234.954 921.717,233.567 918.233,233.567C914.749,233.567 911.409,234.954 908.952,237.423L898.241,248.157C896.159,250.243 895.709,253.454 897.139,256.032C903.608,268.102 918.209,281.79 918.209,281.79L918.21,281.79Z" style="fill:white;fill-rule:nonzero;"/>
        </g>
    </g>
</svg>
